X: 2
T: Sean Ryan's Jig
C: S\'ean Ryan (1987)
R: jig
S: Portland Collection v.2
Z: 2019 John Chambers <jc:trillian.mit.edu>
M: 6/8
L: 1/8
K: Am
B |\
"Am"c3 "G"B3 | "Am"AGE DB,G, | A,2E EDB, | "G"DEG AGE |\
"Am"c3 "G"B{c}dB | "Am"AGE DB,G, | A,2E EDB, | "G"DB,G, "Am"A,2 :|
|: B |\
"Am"cBA a2a | bag edB | "G"GBd g2g | GBd cBA |\
"Am"~c3 dcd | ede gab | "Em"bae dBG | EFG "Am"A2 :|

%%sep 1 1 500

